X: 1
T:Cantina
S:(1st/6)
M: 4/4
L: 1/4
Q:1/4=120
K:Gm
DA DF D/2FF_D/2=D|F/2E/2F/2E=B,/2_D/2_D/2 A,3/2A,/2 z2|F_A, F_A, =D/2EF_D/2=D|
D=B,3/2_B,/2=B, E/2DE_B,/2z|FA DF D/2FF_D/2F|_DE3/2E/2E C3/2=A,/2 z2|B,=B,/2_D/2 _B,3/2_E/2 C3/2_A/2 _G2|
=Gz =B,/2_B,C/2 z4|z/2F/2a'/2=D/2 Fz3/2F/2f'/2D/2 Fz|z/2F/2e'/2D/2 =E/2F/2f'/2D3/2e'/2A,3/2e'/2z/2|z/2F/2f'/2D/2 Fz3/2F/2a'/2D/2 Fz|
z/2F/2e'/2D/2 E/2F/2a'/2_E3/2g'/2=E/2 Gz|z/2F/2f'/2D/2 Fz3/2F/2e'/2D/2 Fz|z/2F/2f'/2D/2 E/2F/2e'/2D3/2f'/2A,/2 zz|B,/2D/2z =B,/2D/2z _A/2=A/2_d'/2D/2 zz|
D/2F/2_d'/2D/2 _a'/2zz4z/2|D/2zFD/2E3/2D/2F/2D/2 E/2D/2F|D/2zFD/2E/2zD/2F/2D/2 E/2D/2F|D/2zFD/2E/2zD/2F/2D/2 E/2D/2F/2z/2|
z/2d/2f/2d/2 e/2d/2f/2d/2 e/2d/2f/2d/2 e/2d/2f|dD/2D/2 D/2D/2e/2D/2 D/2D/2D/2D/2 e/2d/2f|dD/2f/2 D/2d/2D/2D/2 D/2d/2f/2D/2 _D/2d/2f|d=D/2f/2 D/2D/2D/2D/2 D/2d/2f/2d/2 e/2d/2f|
D/2d/2D/2d/2 f/2zz4z/2|C,,/2e/2C/2G/2 d/2=B/2z G/2zc/2 zz|F,,/2f/2z g/2e/2z zz zz|Gz dz c/2e/2C/2b3/2E,|
aA,/2_B/2 E,,E,,/2_g/2 A/2_g/2_g/2_g/2 _g/2z3/2|d/2f/2F/2d/2 D/2_B,/2F/2=B,/2 d/2f/2=b/2=d'=B,/2D/2C/2|f/2F/2c/2=g_Da/2 =D/2d/2d/2d/2 dz|G,,/2G,/2d'/2F,/2 _b/2E,/2g/2d'/2 C,,/2C,/2c'/2e'/2 A,,,/2A,,/2g/2G,,/2|
F,,,/2c'f/2 _D/2za/2 d/2f/2f/2f/2 f/2f'/2f'/2f/2|_A/2G/2_A/2G/2 _A/2G/2_A/2G/2 _A/2_d_A/2 _d_A/2_d/2-|_d/2_A/2B/2=B/2 c/2=B/2_B _A/2G/2_A/2G/2 _A/2G/2_A/2G/2|_A/2_d_A/2 _d_A/2=A/2 B/2A/2B3/2A/2B/2A/2|
B/2A/2B/2=B/2 c_G/2=G/2 _A/2G/2_A/2G/2 _A/2G/2_A/2G/2|_A/2_d_A/2 _d_A/2=A/2 _B/2A/2B3/2A/2B/2=B/2|c/2G/2E/2Cc/2_d/2c/2 _d/2z_d/2 e/2_de/2|f/2e/2f/2_g/2 =g/2cG/2 _A/2G/2_A/2=A/2 _B/2A/2B/2=B/2|
c/2c/2z c/2c/2z c/2c/2z c/2c/2z|ce zF/2=D/2 G/2E/2D/2C/2 A,3/2_E/2|c/2c_E/2 c/2c=B,/2 c/2c_G/2 c/2cD,/2|_B,/2_D/2_G/2_B/2 C/2=E/2=G/2c/2 F/2_DC/2 _D/2z3/2|
z_A/2_A/2 B/2_A/2_A/2_A/2 _A/2_A/2B/2B/2 _A/2F/2=D/2z/2|z_A/2_A/2 B/2B/2B/2_A/2 _A/2_A/2_A/2B/2 _A/2F/2D/2z/2|z_A/2_A/2 B/2B/2_A/2_A/2 _A/2B/2B/2_A/2 _A/2F/2D/2z/2|z/2_A_A_A_A_A_A_A_A/2|
D=A DF D/2AF_D/2=D|F/2E/2F/2E=B,/2_D/2_D/2 A,3/2A,/2 z2|F_A, F_A, =D/2EF_D/2=D|D=B,3/2_B,/2=B, E/2DE_B,/2z|
FA DF D/2FF_D/2F|_DE3/2E/2E C3/2z2z/2|B,=B,/2_D/2 _B,3/2_E/2 C3/2_A/2 _G2|=Gz =B,/2_B,CC/2=D/2=E/2 F
